X:1
T:Title
%%score { 1 | 2 }
L:1/8
M:4/2
K:Ab
V:1 treble nm="Grand Piano"
V:2 bass 
V:1
 z8 z4[Q:1/4=144] [A,C]2 [B,D]2 | [CE]2 [CE]2 [CE]2 [CE]2 [DF] [CE]3 [EA]2 B2 | %2
 c2 c2 c2 d2 c4 c2 [EB]2 | [FA]2 [FA]2 [FA]2 [FB]2 [FA]2 [FA]2 [DF]2 [DF]2 | [CE]12 [A,C]2 [B,D]2 | %5
[M:6/4] [CE]2 [CE]2 [CE]2 [CE]2 [DF] [CE]3 |[M:2/4] [EA]2 B2 |[M:8/4] c2 c2 c2 d2 e4 E2 E2 | %8
 F2 [EG]2 [FA]2 [Fd]2 c2 A2 B3 B |[M:6/4] [CA]12 |[M:2/4] c2 d2 | %11
[M:8/4] e2 e2 e2 f2 e c3 c2 [EB]2 | [FA]2 [FA]2 [FA]2 [FB]2 [FA]4 F2 A2 | %13
 E2 [CE]2 [EA]2 B2 c2 c2 e3 c | B12 c2 d2 |[M:6/4] e2 e2 e2 f2 e c3 |[M:2/4] c2 [EB]2 | %17
[M:8/4] [FA]2 [FA]2 [FA]2 [FB]2 [FA]4 F2 A2 | E2 c2 c2 d2 c2 A2 B3 B |[M:6/4] [CA]12 |] %20
V:2
 z8 z4 [A,,E,]2 [A,,E,]2 | [A,,A,]2 [A,,A,]2 [A,,A,]2 [A,,A,]2 [A,,A,] [A,,A,]3 [C,A,]2 [E,G,E]2 | %2
 [A,E]2 [A,E]2 [A,E]2 [A,F]2 [A,E]4[K:bass] [A,E]2 [C,A,]2 | %3
 [D,D]2 [D,D]2 [D,D]2 [D,D]2 [D,D]2 [D,D]2 [D,A,]2 [D,A,]2 | [A,,A,]12 [A,,E,]2 [A,,E,]2 | %5
[M:6/4] [A,,A,]2 [A,,A,]2 [A,,A,]2 [A,,A,]2 [A,,A,] [A,,A,]3 |[M:2/4] [C,A,]2 [E,G,E]2 | %7
[M:8/4] [A,E]2 [A,E]2 [A,E]2 [A,B,E]2 [A,CE]4 [C,A,]2 [C,A,]2 | %8
 [D,A,D]2 [D,A,]2 [D,A,]2 [D,A,]2 [E,A,E]2 [E,A,C]2 [E,G,D]3 [E,G,D] |[M:6/4] [A,,A,]12 | %10
[M:2/4][K:treble] [A,E]2 [A,B,E]2 | %11
[M:8/4] [A,CA]2 [A,CA]2 [A,CA]2 [A,DA]2 [A,CA][K:bass] [A,E]3 [A,E]2 [C,A,]2 | %12
 [D,D]2 [D,D]2 [D,D]2 [D,D]2 [D,D]4 [D,A,D]2 [F,A,D]2 | %13
 [A,C]2 [A,,A,]2 [C,A,]2 [E,G,E]2 [A,E]2 [A,E]2 [A,CE]3 [A,E] | %14
 [E,G,E]12[K:treble] [A,E]2 [A,B,E]2 | %15
[M:6/4] [A,CA]2 [A,CA]2 [A,CA]2 [A,DA]2 [A,CA][K:bass] [A,E]3 |[M:2/4] [A,E]2 [C,A,]2 | %17
[M:8/4] [D,D]2 [D,D]2 [D,D]2 [D,D]2 [D,D]4 [D,A,D]2 [F,A,D]2 | %18
 [E,A,C]2 [E,A,E]2 [E,A,E]2 [E,B,E]2 [E,A,E]2 [E,A,C]2 [E,G,D]3 [E,G,D] |[M:6/4] [A,,A,]12 |] %20

